packages/ui-icons/svg/Solid/open-folder.svg

<svg viewBox="0 0 1920 1920" version="1.1" xmlns="http://www.w3.org/2000/svg">
    <path d="M572.501333,747 L317.568,1562.89333 L215.701333,1531.10667 L494.208,640.333333 L1600.02133,640.333333 L1600.02133,320.333333 L783.808,320.333333 L612.181333,107 L0.0213333333,107 L0.0213333333,1653.66667 C0.0213333333,1741.88 71.808,1813.66667 160.021333,1813.66667 L1548.07467,1813.66667 C1624.02133,1813.66667 1690.048,1759.58667 1704.98133,1685.02667 L1892.608,747 L572.501333,747 Z" stroke="none" stroke-width="1" fill-rule="evenodd"/>
</svg>

<svg viewBox="0 0 1920 1920" version="1.1" xmlns="http://www.w3.org/2000/svg">
    <path d="M572.501 747l-254.933 815.893-101.867-31.786 278.507-890.774h1105.813v-320H783.808L612.181 107H.021v1546.667c0 88.213 71.787 160 160 160h1388.054c75.946 0 141.973-54.08 156.906-128.64L1892.608 747H572.501z" stroke="none" stroke-width="1" fill-rule="evenodd"/>
</svg>
